la/temperature-high-solid.svg

<svg xmlns="http://www.w3.org/2000/svg" viewBox="0 0 32 32" height="1em" width="1em">
  <path d="M 9 4 L 9 15.46875 C 7.25 16.73775 6 18.676 6 21 C 6 24.855 9.145 28 13 28 C 16.855 28 20 24.855 20 21 C 20 18.676 18.75 16.73775 17 15.46875 L 17 14 L 19 14 L 19 12 L 17 12 L 17 10 L 19 10 L 19 8 L 17 8 L 17 6 L 19 6 L 19 4 L 9 4 z M 24.5 4 C 22.57 4 21 5.57 21 7.5 C 21 9.43 22.57 11 24.5 11 C 26.43 11 28 9.43 28 7.5 C 28 5.57 26.43 4 24.5 4 z M 11 6 L 15 6 L 15 16.40625 L 15.5 16.6875 C 16.996 17.5555 18 19.148 18 21 C 18 23.773 15.773 26 13 26 C 10.227 26 8 23.773 8 21 C 8 19.148 9.004 17.5555 10.5 16.6875 L 11 16.40625 L 11 6 z M 24.5 6 C 25.327 6 26 6.673 26 7.5 C 26 8.327 25.327 9 24.5 9 C 23.673 9 23 8.327 23 7.5 C 23 6.673 23.673 6 24.5 6 z M 12 8 L 12 18.1875 C 10.84 18.6015 10 19.700953 10 21.001953 C 10 22.657953 11.344 24.001953 13 24.001953 C 14.656 24.001953 16 22.657953 16 21.001953 C 16 19.700953 15.16 18.6025 14 18.1875 L 14 8 L 12 8 z"/>
</svg>

<svg xmlns="http://www.w3.org/2000/svg" viewBox="0 0 32 32" height="1em" width="1em">
  <path d="M9 4v11.469C7.25 16.738 6 18.676 6 21c0 3.855 3.145 7 7 7s7-3.145 7-7c0-2.324-1.25-4.262-3-5.531V14h2v-2h-2v-2h2V8h-2V6h2V4H9zm15.5 0C22.57 4 21 5.57 21 7.5s1.57 3.5 3.5 3.5S28 9.43 28 7.5 26.43 4 24.5 4zM11 6h4v10.406l.5.282c1.496.867 2.5 2.46 2.5 4.312 0 2.773-2.227 5-5 5s-5-2.227-5-5c0-1.852 1.004-3.445 2.5-4.313l.5-.28V6zm13.5 0c.827 0 1.5.673 1.5 1.5S25.327 9 24.5 9 23 8.327 23 7.5 23.673 6 24.5 6zM12 8v10.188c-1.16.414-2 1.513-2 2.814a3.001 3.001 0 0 0 6 0c0-1.301-.84-2.4-2-2.814V8h-2z"/>
</svg>
